!!!OTL: Der Wasserkrug (47a), S. 179
!!!id: T0179
**kern
*clefG2
*k[]
*G:
{8d
=1
8g
8g
8g
8g
=2
8g
8d
16d
16d}
=3
{8d
=4
8b
8b
8b
8b
=5
4dd}
8r
=6
{8dd
=7
8b
8dd
8dd
8ee
=8
8dd
8b
8g}
=9
{8dd
=10
8b
8g
8b
8g
=11
4a}
=12
{4dd
=13
8b
8b
8a
8a
=14
4g}
8r
==
*-
!!!minrhy: 16
!!!meters: 2/4 ]  ZZ[5
!!!cut: Der Wasserkrug (47a), S. 179
!!!reg: Luxemburg
!!!trd: Singendes Volk, Esch-Alzette 1937 posth.
!!!rhy1: X_  X_X_X_X_  X_X_XX
!!!rhy2: X_  X_X_X_X_  X__0_
!!!key: T0179  16  G 2/4 ]  ZZ[5
!!!mod: PENTATONIK HALBTONL. GONG]  AMBITUS[9
!!!kad: -55121
!!!akz: 11_35_35_32_31_
!!!fot: 'a__b__c__bw_d__
!!!for: 'a__aw_aw_aw_aw_
!!!fok: '^__/__Sd_\__\__
!! PHRAS[AUFTAKTIG]
!!!fkt: Liebeslieder
!!!bem: StraPen, fff Witry, 10.1.1933
!! THILL, Mathias:
!! PR[33] 2K[6] 2G[14] 3K[8] 3G[6] 4A[3] 4Ü[0] 5A[0] 6K[0] 6G[0]
!! 7K[0] 7G[0] 8A[0] MEHR[0] SI[36] ABS[36] SR[19] SP[17]
!! ST[10] 2k[0] 2g[14] 3k[14] 3g[3] 4d[0] 4ü[0] 5d[0] 6k[0] 6g[0]
!! 7k[0] 7g[0] 8d[0] mehr[0] si[31] dm[+5] sr[14] sp[17]
!! 1F[15] 2F[78] 3F[8] 4F[0] LF[0] 2P[0] 3P[0] 4P[0] TRI[0] DF[3] AB[40]
!! TF[0] U3K[0] U3[0] U4[0] U4Ü[0] U5[3] U6K[0] U6[0] U7K[0] U7[0]
!! N1[16] N2K[0] N2[19] N3K[0] N3[24] N4[8] N4Ü[0] N5[27] N6K[0] N6[3]
!!!n7k: 0] N7[0] O1[0] O2K[0] O2[0] O3K[0] O3[0] HÖ[0
